X:15
T:Miss Abercromby's Reel - of Birkenbog
R:reel
C:William Marshall
S:1781 Collection p5
B:Athole
Z:Paul Stewart Cranford (P.S.C.), <http://www.cranfordpub.com>
L:1/8
Q:333
M:C|
K:CAeo
EDCD EFGE|FBEB DB,FD|EDCD EFGc|B<GF>D C/C/C C2:|
|edcd efge|dcBc defd|edcd efge|d>cBd c/c/c c2|
edcd efge|dcBc defd|gefd ecdB|GD C/C/C C2|]
